!!!OTL: Derry Ding Ding Dason
!!!ONB: Melismata 1609
!!!AGN: Round
!!!AMD: Pentatonic
**kern
!! First Entrance
=1-
*clefG2
*k[f#]
*M3/4
*MM120
{8dd\L
8dd\J
4dd\
4dd\
=2
4b/
4g/}
4r
=3
{4dd\
4dd\
4dd\
=4
4b/
4g/}
{4a/
=5
!! Second Entrance
4b/
4g/
4a/
=6
4g/
4g/
4a/}
=7
{4b/
4g/
4a/
=8
4g/
4g/}
{4d/
=9
!! Third Entrance
2g^/
4d/
=10
2g^/}
{4d/
=11
2g^/
4d/
=12
2g/}
4r
==
*-
